X: 15981
T: Gravediggers, The
R: jig
M: 6/8
K: Dmajor
def afe|def ged|eAA fAA|ged cBc|
def afe|def ged|eAA fAA|1 age d2A:|2 age dz2||
K: Amaj
|:e3 e2d|cde aec|BEF GEF|GAB dcd|
~e3 e2d|cde aec|BEF GAB|dBG A3:|

